X: 122019
T: Lady Emma's
N: 040
C: BB
L: 1/8
M: 4/4
R: hornpipe
Q: 1/4=165
K: D
FE|"D"DFAd "A7"cBAg|"Bm"fedf "A7"ecAG|"D"FAdA "G"Bdgb|"D"afdB "A"(3ABA FE|\
"D"DFAd "A7"cBAg|"Bm"fedf "A7"ecAG|"D"FAdf "A7"geBc|"D"df "A"ec "D"d2 :|
de|"D"fa"Em"ge "D"fa"Em"ge|"Bm"BABc "G"d2 ef|"G"gb"D"af "G"gb"D"af|\
"G"(3def gf "A"e2 de|
"D"fa"Em"ge "D"df"A"ec|"G"Bd"A"cA "Bm"B2 AG|"D"FAdf "A7"geBc|\
"D"df "A"ec "D"d2 :|
